Obsidian/places/22/mail-outbox.svg

<svg height="22" width="22" xmlns="http://www.w3.org/2000/svg" xmlns:xlink="http://www.w3.org/1999/xlink"><linearGradient id="a"><stop offset="0" stop-color="#fff"/><stop offset="1" stop-color="#fff" stop-opacity="0"/></linearGradient><linearGradient id="b"><stop offset="0" stop-color="#9e9e9e"/><stop offset="1" stop-color="#656565"/></linearGradient><linearGradient id="c"><stop offset="0" stop-color="#686868"/><stop offset="1" stop-color="#d2d2d2"/></linearGradient><linearGradient id="d"><stop offset="0" stop-color="#dfdfdf"/><stop offset="1" stop-color="#686868"/></linearGradient><linearGradient id="e" gradientUnits="userSpaceOnUse" x1="3.967467" x2="1.053947" xlink:href="#d" y1="14.850126" y2="21.854017"/><linearGradient id="f" gradientUnits="userSpaceOnUse" x1="18.052309" x2="21.013454" xlink:href="#d" y1="15.628317" y2="22.099749"/><linearGradient id="g" gradientUnits="userSpaceOnUse" x1="11.110959" x2="11.02041" xlink:href="#c" y1="34.127409" y2="23.232466"/><linearGradient id="h" gradientUnits="userSpaceOnUse" x1="8.933636" x2="8.899093" xlink:href="#b" y1="23.191507" y2="31.014566"/><linearGradient id="i" gradientUnits="userSpaceOnUse" x1="8.933636" x2="8.899093" xlink:href="#a" y1="23.191507" y2="31.014566"/><linearGradient id="j" gradientUnits="userSpaceOnUse" x1="3.262674" x2="8.189212" xlink:href="#b" y1="15.177793" y2="19.191719"/><linearGradient id="k" gradientTransform="matrix(1.0134538 0 0 .65864057 -1.161652 12.844168)" gradientUnits="userSpaceOnUse" x1="11.334118" x2="11.149202" y1="1.761231" y2="13.319177"><stop offset="0" stop-color="#9e9e9e"/><stop offset="1" stop-color="#878787"/></linearGradient><linearGradient id="l" gradientUnits="userSpaceOnUse" x1="19.60873" x2="15.156401" xlink:href="#b" y1="17.266654" y2="18.536365"/><linearGradient id="m" gradientTransform="matrix(.99609579 0 0 1.1930934 -.953239 3.797543)" gradientUnits="userSpaceOnUse" x1="14.443072" x2="14.522355" xlink:href="#b" y1="15.124065" y2="10.835641"/><linearGradient id="n" gradientTransform="matrix(1.0134538 0 0 .65864057 -1.161652 12.844168)" gradientUnits="userSpaceOnUse" x1="12.759906" x2="12.876342" xlink:href="#c" y1="12.821736" y2="2.80567"/><linearGradient id="o" gradientTransform="matrix(.99735741 0 0 1.1253974 -.968432 -3.7314)" gradientUnits="userSpaceOnUse" x1="12.987228" x2="12.940624" xlink:href="#d" y1="14.997477" y2="29.698929"/><linearGradient id="p" gradientTransform="matrix(1.0092219 0 0 .7670215 -1.11096 12.518015)" gradientUnits="userSpaceOnUse" x1="12.551643" x2="12.40731" xlink:href="#a" y1="6.246773" y2="-1.205439"/><linearGradient id="q" gradientTransform="matrix(0 .319447 -.313352 0 15.486281 .91413)" gradientUnits="userSpaceOnUse" x1="16.571032" x2="44.094543" y1="14.001868" y2="14.001868"><stop offset="0" stop-color="#f8cd70"/><stop offset="1" stop-color="#cc9110"/></linearGradient><linearGradient id="r" gradientTransform="matrix(0 -.3704967 -.3617496 0 17.508315 17.332054)" gradientUnits="userSpaceOnUse" x1="36.991932" x2="-7.200998" xlink:href="#a" y1="20.441076" y2="20.441076"/><g stroke-linejoin="round" transform="translate(0 -10)"><path d="m17.46543 20.477903-12.8638144.04188-4.0297716 8.972634 20.981857.04096-4.088271-9.055472z" fill="url(#o)" stroke="url(#m)" stroke-width="1.008538"/><g stroke-linecap="round"><path d="m18.427663 20.581838.000494-6.076251-15.0231075.02698.011572 6.041542 15.0110415.0077z" fill="url(#n)" stroke="url(#k)"/><path d="m3.4188547 14.504352-2.9328547 6.928713.087889 8.057329 3.9435959-9.418492-.00882-5.582137-1.0898102.01459z" fill="url(#e)" stroke="url(#j)"/><path d="m17.574361 20.093835-.0409-5.567514 1.126387.0014 2.886075 6.981389-.006 8.080717z" fill="url(#f)" stroke="url(#l)"/></g><path d="m21.585707 29.604998-.07992-7.984777-4.946261-.03876.02244 3.012871-11.1026419.04096.063405-3.058233-4.9171127-.120677-.079944 8.025738z" fill="url(#g)" stroke="url(#h)"/><path d="m20.561744 28.581052-.03896-6.018762-3.021214.0022.02244 3.012871-13.0276881.000002.022446-3.017274-2.951108-.03876.00197 5.977815 18.9921111.08191z" fill="none" opacity=".5" stroke="url(#i)"/><path d="m20.439687 21.733763-2.457013-6.209246-13.9273485-.050458-2.4459818 6.127867" fill="none" opacity=".81" stroke="url(#p)" stroke-linecap="round"/></g><g stroke-width=".998294" transform="translate(3.000001 -1)"><path d="m14.176046 8.5-6.1915613-7.000853-6.1605311 7.000853h2.676046v6.000853h7.0000004v-6.000853z" fill="url(#q)" stroke="#bf8407" stroke-linecap="round" stroke-linejoin="round"/><path d="m11.926403 7.5-3.926403-4.545115-4.0369384 4.545115h1.536938v6h5.0000004v-6z" fill="none" opacity=".354" stroke="url(#r)"/></g></svg>

<?xml version="1.0" encoding="UTF-8" standalone="no"?>
<!-- Created with Inkscape (http://www.inkscape.org/) -->

<svg
   xmlns:svg="http://www.w3.org/2000/svg"
   xmlns="http://www.w3.org/2000/svg"
   xmlns:xlink="http://www.w3.org/1999/xlink"
   version="1.1"
   width="22"
   height="22"
   id="svg2">
  <defs
     id="defs6">
    <linearGradient
       id="linearGradient3797">
      <stop
         id="stop3799"
         style="stop-color:#9e9e9e;stop-opacity:1"
         offset="0" />
      <stop
         id="stop3801"
         style="stop-color:#878787;stop-opacity:1"
         offset="1" />
    </linearGradient>
    <linearGradient
       id="linearGradient3681">
      <stop
         id="stop3683"
         style="stop-color:#ffffff;stop-opacity:1"
         offset="0" />
      <stop
         id="stop3685"
         style="stop-color:#ffffff;stop-opacity:0"
         offset="1" />
    </linearGradient>
    <linearGradient
       id="linearGradient3671">
      <stop
         id="stop3673"
         style="stop-color:#9e9e9e;stop-opacity:1"
         offset="0" />
      <stop
         id="stop3675"
         style="stop-color:#656565;stop-opacity:1"
         offset="1" />
    </linearGradient>
    <linearGradient
       id="linearGradient3665">
      <stop
         id="stop3667"
         style="stop-color:#686868;stop-opacity:1"
         offset="0" />
      <stop
         id="stop3669"
         style="stop-color:#d2d2d2;stop-opacity:1"
         offset="1" />
    </linearGradient>
    <linearGradient
       id="linearGradient3635">
      <stop
         id="stop3637"
         style="stop-color:#dfdfdf;stop-opacity:1"
         offset="0" />
      <stop
         id="stop3639"
         style="stop-color:#686868;stop-opacity:1"
         offset="1" />
    </linearGradient>
    <linearGradient
       x1="3.9847195"
       y1="6.9312401"
       x2="1.0711995"
       y2="13.935131"
       id="linearGradient3617"
       xlink:href="#linearGradient3635"
       gradientUnits="userSpaceOnUse"
       gradientTransform="translate(-0.01725311,7.9188861)" />
    <linearGradient
       x1="19.994608"
       y1="7.5865555"
       x2="22.955753"
       y2="14.057988"
       id="linearGradient3625"
       xlink:href="#linearGradient3635"
       gradientUnits="userSpaceOnUse"
       gradientTransform="translate(-1.9422993,8.0417614)" />
    <linearGradient
       x1="12.111214"
       y1="34.126606"
       x2="12.020665"
       y2="23.231663"
       id="linearGradient3663"
       xlink:href="#linearGradient3665"
       gradientUnits="userSpaceOnUse"
       gradientTransform="translate(-1.0002554,8.03e-4)" />
    <linearGradient
       x1="9.9338913"
       y1="23.190704"
       x2="9.8993483"
       y2="31.013763"
       id="linearGradient3677"
       xlink:href="#linearGradient3671"
       gradientUnits="userSpaceOnUse"
       gradientTransform="translate(-1.0002554,8.03e-4)" />
    <linearGradient
       x1="9.9338913"
       y1="23.190704"
       x2="9.8993483"
       y2="31.013763"
       id="linearGradient3687"
       xlink:href="#linearGradient3681"
       gradientUnits="userSpaceOnUse"
       gradientTransform="translate(-1.0002554,8.03e-4)" />
    <linearGradient
       x1="3.2799273"
       y1="7.2589068"
       x2="8.2064648"
       y2="11.272833"
       id="linearGradient3695"
       xlink:href="#linearGradient3671"
       gradientUnits="userSpaceOnUse"
       gradientTransform="translate(-0.01725311,7.9188861)" />
    <linearGradient
       x1="11.334118"
       y1="1.7612305"
       x2="11.149202"
       y2="13.319177"
       id="linearGradient3703"
       xlink:href="#linearGradient3797"
       gradientUnits="userSpaceOnUse"
       gradientTransform="matrix(1.0134538,0,0,0.65864057,-1.1616515,12.844168)" />
    <linearGradient
       x1="21.551029"
       y1="9.2248926"
       x2="17.0987"
       y2="10.494604"
       id="linearGradient3711"
       xlink:href="#linearGradient3671"
       gradientUnits="userSpaceOnUse"
       gradientTransform="translate(-1.9422993,8.0417614)" />
    <linearGradient
       x1="14.443072"
       y1="15.124065"
       x2="14.522355"
       y2="10.835641"
       id="linearGradient3719"
       xlink:href="#linearGradient3671"
       gradientUnits="userSpaceOnUse"
       gradientTransform="matrix(0.99609579,0,0,1.1930934,-0.95323873,3.7975431)" />
    <linearGradient
       x1="12.759906"
       y1="12.821736"
       x2="12.876342"
       y2="2.80567"
       id="linearGradient3725"
       xlink:href="#linearGradient3665"
       gradientUnits="userSpaceOnUse"
       gradientTransform="matrix(1.0134538,0,0,0.65864057,-1.1616515,12.844168)" />
    <linearGradient
       x1="12.987228"
       y1="14.997477"
       x2="12.940624"
       y2="29.698929"
       id="linearGradient3756"
       xlink:href="#linearGradient3635"
       gradientUnits="userSpaceOnUse"
       gradientTransform="matrix(0.99735741,0,0,1.1253974,-0.96843183,-3.7313997)" />
    <linearGradient
       x1="12.551643"
       y1="6.2467732"
       x2="12.40731"
       y2="-1.2054387"
       id="linearGradient3803"
       xlink:href="#linearGradient3681"
       gradientUnits="userSpaceOnUse"
       gradientTransform="matrix(1.0092219,0,0,0.7670215,-1.1109595,12.518015)" />
    <linearGradient
       x1="16.571032"
       y1="14.001868"
       x2="44.094543"
       y2="14.001868"
       id="linearGradient2512-6"
       xlink:href="#linearGradient4168"
       gradientUnits="userSpaceOnUse"
       gradientTransform="matrix(0,0.319447,-0.313352,0,15.486281,0.91413)" />
    <linearGradient
       id="linearGradient4168">
      <stop
         id="stop4170"
         style="stop-color:#f8cd70;stop-opacity:1"
         offset="0" />
      <stop
         id="stop4172"
         style="stop-color:#cc9110;stop-opacity:1"
         offset="1" />
    </linearGradient>
    <linearGradient
       id="linearGradient4222-4">
      <stop
         id="stop4224-1"
         style="stop-color:#ffffff;stop-opacity:1"
         offset="0" />
      <stop
         id="stop4226-0"
         style="stop-color:#ffffff;stop-opacity:0"
         offset="1" />
    </linearGradient>
    <linearGradient
       x1="36.991932"
       y1="20.441076"
       x2="-7.2009978"
       y2="20.441076"
       id="linearGradient2858"
       xlink:href="#linearGradient4222-4"
       gradientUnits="userSpaceOnUse"
       gradientTransform="matrix(0,-0.3704967,-0.3617496,0,17.508315,17.332054)" />
  </defs>
  <g
     transform="translate(0,-10)"
     id="layer2">
    <path
       d="M 17.46543,20.477903 4.6016156,20.519783 0.571844,29.492417 21.553701,29.533377 17.46543,20.477905 z"
       id="path3593"
       style="fill:url(#linearGradient3756);fill-opacity:1;stroke:url(#linearGradient3719);stroke-width:1.00853801;stroke-linejoin:round;stroke-miterlimit:4;stroke-dasharray:none" />
    <path
       d="m 18.427663,20.581838 4.94e-4,-6.076251 -15.0231075,0.02698 0.011572,6.041542 15.0110415,0.0077 z"
       id="path3597"
       style="fill:url(#linearGradient3725);fill-opacity:1;stroke:url(#linearGradient3703);stroke-width:1;stroke-linecap:round;stroke-linejoin:round;stroke-miterlimit:4;stroke-dasharray:none" />
    <path
       d="M 3.4188547,14.504352 0.486,21.433065 l 0.087889,8.057329 3.9435959,-9.418492 -0.00882,-5.582137 -1.0898102,0.01459 z"
       id="path3599"
       style="fill:url(#linearGradient3617);fill-opacity:1;stroke:url(#linearGradient3695);stroke-linecap:round;stroke-linejoin:round;stroke-opacity:1" />
    <path
       d="m 17.574361,20.093835 -0.0409,-5.567514 1.126387,0.0014 2.886075,6.981389 -0.006,8.080717 -3.965562,-9.495992 z"
       id="path3601"
       style="fill:url(#linearGradient3625);fill-opacity:1;stroke:url(#linearGradient3711);stroke-linecap:round;stroke-linejoin:round" />
    <path
       d="m 21.585707,29.604998 -0.07992,-7.984777 -4.946261,-0.03876 0.02244,3.012871 -11.1026419,0.04096 0.063405,-3.058233 -4.9171127,-0.120677 -0.079944,8.025738 21.0400346,0.122878 z"
       id="path3655"
       style="fill:url(#linearGradient3663);fill-opacity:1;stroke:url(#linearGradient3677);stroke-linejoin:round;stroke-opacity:1" />
    <path
       d="m 20.561744,28.581052 -0.03896,-6.018762 -3.021214,0.0022 0.02244,3.012871 -13.0276881,2e-6 0.022446,-3.017274 -2.951108,-0.03876 0.00197,5.977815 18.9921111,0.08191 z"
       id="path3679"
       style="opacity:0.5;fill:none;stroke:url(#linearGradient3687);stroke-linejoin:round;stroke-opacity:1" />
    <path
       d="M 20.439687,21.733763 17.982674,15.524517 4.0553255,15.474059 1.6093437,21.601926"
       id="path3793"
       style="opacity:0.81000001;fill:none;stroke:url(#linearGradient3803);stroke-width:1;stroke-linecap:round;stroke-linejoin:round;stroke-miterlimit:4;stroke-dasharray:none" />
  </g>
  <g
     transform="translate(3.0000007,-1.0000002)"
     id="layer1">
    <path
       d="M 14.176046,8.5 7.9844847,1.499147 1.8239536,8.5 l 2.676046,0 0,6.000853 7.0000004,0 0,-6.000853 2.676046,0 z"
       id="path3288"
       style="fill:url(#linearGradient2512-6);fill-opacity:1;fill-rule:nonzero;stroke:#bf8407;stroke-width:0.99829447;stroke-linecap:round;stroke-linejoin:round;stroke-miterlimit:4;stroke-opacity:1;stroke-dasharray:none;stroke-dashoffset:0;marker:none;visibility:visible;display:inline;overflow:visible" />
    <path
       d="M 11.926403,7.5 8,2.954885 3.9630616,7.5 l 1.536938,0 0,6 5.0000004,0 0,-6 1.426403,0 z"
       id="path3290"
       style="opacity:0.35400008;fill:none;stroke:url(#linearGradient2858);stroke-width:0.99829447;stroke-linecap:butt;stroke-linejoin:miter;stroke-miterlimit:4;stroke-opacity:1;stroke-dasharray:none;stroke-dashoffset:0;marker:none;visibility:visible;display:inline;overflow:visible" />
  </g>
</svg>
